icons/suitcase-minimal.svg

<svg xmlns="http://www.w3.org/2000/svg" viewBox="0 0 24 24" fill="currentColor">
  <path d="M8.75 5.25C8.75 4.56421 9.31421 4 10 4h4c.6858 0 1.25.56421 1.25 1.25V6h-6.5v-.75ZM7.25 6v-.75C7.25 3.73579 8.48579 2.5 10 2.5h4c1.5142 0 2.75 1.23579 2.75 2.75V6H17c2.6142 0 4.75 2.13579 4.75 4.75v6c0 2.6142-2.1358 4.75-4.75 4.75H7c-2.61421 0-4.75-2.1358-4.75-4.75v-6C2.25 8.13579 4.38579 6 7 6h.25Zm-3.5 4.75C3.75 8.96421 5.21421 7.5 7 7.5h10c1.7858 0 3.25 1.46421 3.25 3.25v6c0 1.7858-1.4642 3.25-3.25 3.25H7c-1.78579 0-3.25-1.4642-3.25-3.25v-6Z"/>
  <path d="M16 20.75H8"/>
</svg>

<svg width="24" height="24" viewBox="0 0 24 24" fill="none" xmlns="http://www.w3.org/2000/svg">
<path fill-rule="evenodd" clip-rule="evenodd" d="M8.75 5.25C8.75 4.56421 9.31421 4 10 4H14C14.6858 4 15.25 4.56421 15.25 5.25V6H8.75V5.25ZM7.25 6V5.25C7.25 3.73579 8.48579 2.5 10 2.5H14C15.5142 2.5 16.75 3.73579 16.75 5.25V6H17C19.6142 6 21.75 8.13579 21.75 10.75V16.75C21.75 19.3642 19.6142 21.5 17 21.5H7C4.38579 21.5 2.25 19.3642 2.25 16.75V10.75C2.25 8.13579 4.38579 6 7 6H7.25ZM3.75 10.75C3.75 8.96421 5.21421 7.5 7 7.5H17C18.7858 7.5 20.25 8.96421 20.25 10.75V16.75C20.25 18.5358 18.7858 20 17 20H7C5.21421 20 3.75 18.5358 3.75 16.75V10.75Z" fill="black"/>
<path d="M16 20.75H8" stroke="black" stroke-width="1.5" stroke-miterlimit="10"/>
</svg>
